resources/icons/rollup.svg

<?xml version="1.0" encoding="UTF-8" standalone="no"?>
<svg
   xmlns:dc="http://purl.org/dc/elements/1.1/"
   xmlns:cc="http://creativecommons.org/ns#"
   xmlns:rdf="http://www.w3.org/1999/02/22-rdf-syntax-ns#"
   xmlns:svg="http://www.w3.org/2000/svg"
   xmlns="http://www.w3.org/2000/svg"
   xmlns:sodipodi="http://sodipodi.sourceforge.net/DTD/sodipodi-0.dtd"
   xmlns:inkscape="http://www.inkscape.org/namespaces/inkscape"
   width="16"
   height="16"
   viewBox="0 0 16 16"
   version="1.1"
   id="svg61"
   sodipodi:docname="rollup.svg"
   inkscape:version="0.92.4 (5da689c313, 2019-01-14)">
  <metadata
     id="metadata67">
    <rdf:RDF>
      <cc:Work
         rdf:about="">
        <dc:format>image/svg+xml</dc:format>
        <dc:type
           rdf:resource="http://purl.org/dc/dcmitype/StillImage" />
      </cc:Work>
    </rdf:RDF>
  </metadata>
  <defs
     id="defs65" />
  <sodipodi:namedview
     pagecolor="#ffffff"
     bordercolor="#666666"
     borderopacity="1"
     objecttolerance="10"
     gridtolerance="10"
     guidetolerance="10"
     inkscape:pageopacity="0"
     inkscape:pageshadow="2"
     inkscape:window-width="1920"
     inkscape:window-height="1001"
     id="namedview63"
     showgrid="false"
     inkscape:zoom="15.776505"
     inkscape:cx="-2.585361"
     inkscape:cy="8"
     inkscape:window-x="-9"
     inkscape:window-y="-9"
     inkscape:window-maximized="1"
     inkscape:current-layer="svg61" />
  <style
     id="style2">.st0{fill:url(#XMLID_4_);} .st1{fill:url(#XMLID_5_);} .st2{fill:url(#XMLID_8_);} .st3{fill:url(#XMLID_9_);} .st4{fill:url(#XMLID_11_);} .st5{opacity:0.3;fill:url(#XMLID_16_);}</style>
  <g
     id="XMLID_14_"
     transform="matrix(0.02339821,0,0,0.02367576,-3.6659465,-3.7927857)">
    <linearGradient
       id="XMLID_4_"
       gradientUnits="userSpaceOnUse"
       x1="444.46899"
       y1="526.05103"
       x2="598.46899"
       y2="562.05103">
      <stop
         offset="0"
         stop-color="#FF6533"
         id="stop4" />
      <stop
         offset=".157"
         stop-color="#FF5633"
         id="stop6" />
      <stop
         offset=".434"
         stop-color="#FF4333"
         id="stop8" />
      <stop
         offset=".714"
         stop-color="#FF3733"
         id="stop10" />
      <stop
         offset="1"
         stop-color="#F33"
         id="stop12" />
    </linearGradient>
    <path
       id="XMLID_15_"
       class="st0"
       d="m 721,410 c 0,-33.6 -8.8,-65.1 -24.3,-92.4 -41.1,-42.3 -130.5,-52.1 -152.7,-0.2 -22.8,53.2 38.3,112.4 65,107.7 34,-6 -6,-84 -6,-84 52,98 40,68 -54,158 -94,90 -190,279.9 -204,287.9 -0.6,0.4 -1.2,0.7 -1.9,1 h 368.7 c 6.5,0 10.7,-6.9 7.8,-12.7 L 623.2,584.5 c -2.1,-4.1 -0.6,-9.2 3.4,-11.5 C 683,540.6 721,479.8 721,410 Z"
       style="fill:url(#XMLID_4_)"
       inkscape:connector-curvature="0" />
  </g>
  <g
     id="XMLID_2_"
     transform="matrix(0.02339821,0,0,0.02367576,-3.6659465,-3.7927857)">
    <linearGradient
       id="XMLID_5_"
       gradientUnits="userSpaceOnUse"
       x1="420.38199"
       y1="475.00201"
       x2="696.383"
       y2="689.00201">
      <stop
         offset="0"
         stop-color="#BF3338"
         id="stop17" />
      <stop
         offset="1"
         stop-color="#F33"
         id="stop19" />
    </linearGradient>
    <path
       id="XMLID_10_"
       class="st1"
       d="m 721,410 c 0,-33.6 -8.8,-65.1 -24.3,-92.4 -41.1,-42.3 -130.5,-52.1 -152.7,-0.2 -22.8,53.2 38.3,112.4 65,107.7 34,-6 -6,-84 -6,-84 52,98 40,68 -54,158 -94,90 -190,279.9 -204,287.9 -0.6,0.4 -1.2,0.7 -1.9,1 h 368.7 c 6.5,0 10.7,-6.9 7.8,-12.7 L 623.2,584.5 c -2.1,-4.1 -0.6,-9.2 3.4,-11.5 C 683,540.6 721,479.8 721,410 Z"
       style="fill:url(#XMLID_5_)"
       inkscape:connector-curvature="0" />
  </g>
  <linearGradient
     id="XMLID_8_"
     gradientUnits="userSpaceOnUse"
     x1="429.386"
     y1="517.156"
     x2="469.386"
     y2="559.156"
     gradientTransform="matrix(0.02339821,0,0,0.02367576,-3.6659465,-3.7927863)">
    <stop
       offset="0"
       stop-color="#FF6533"
       id="stop24" />
    <stop
       offset=".157"
       stop-color="#FF5633"
       id="stop26" />
    <stop
       offset=".434"
       stop-color="#FF4333"
       id="stop28" />
    <stop
       offset=".714"
       stop-color="#FF3733"
       id="stop30" />
    <stop
       offset="1"
       stop-color="#F33"
       id="stop32" />
  </linearGradient>
  <path
     id="XMLID_3_"
     class="st2"
     d="M 4.406435,14.840035 C 4.7340099,14.650631 6.9802378,10.152237 9.1796691,8.0214175 11.379101,5.8905996 11.659878,6.6008723 10.443173,4.280648 c 0,0 -4.656244,6.605537 -6.3409147,9.872791"
     style="fill:url(#XMLID_8_);stroke-width:0.02353656"
     inkscape:connector-curvature="0" />
  <g
     id="XMLID_7_"
     transform="matrix(0.02339821,0,0,0.02367576,-3.6659465,-3.7927857)">
    <linearGradient
       id="XMLID_9_"
       gradientUnits="userSpaceOnUse"
       x1="502.11099"
       y1="589.45697"
       x2="490.11099"
       y2="417.457">
      <stop
         offset="0"
         stop-color="#FF6533"
         id="stop36" />
      <stop
         offset=".157"
         stop-color="#FF5633"
         id="stop38" />
      <stop
         offset=".434"
         stop-color="#FF4333"
         id="stop40" />
      <stop
         offset=".714"
         stop-color="#FF3733"
         id="stop42" />
      <stop
         offset="1"
         stop-color="#F33"
         id="stop44" />
    </linearGradient>
    <path
       id="XMLID_12_"
       class="st3"
       d="M 373,537 C 507.4,289.9 525,265 595,265 c 36.8,0 73.9,16.6 97.9,46.1 -32.7,-52.7 -90.6,-88 -156.9,-89 H 307.7 c -4.8,0 -8.7,3.9 -8.7,8.7 V 691 c 13.6,-35.1 36.7,-85.3 74,-154 z"
       style="fill:url(#XMLID_9_)"
       inkscape:connector-curvature="0" />
  </g>
  <linearGradient
     id="XMLID_11_"
     gradientUnits="userSpaceOnUse"
     x1="450.125"
     y1="514.209"
     x2="506.943"
     y2="552.846"
     gradientTransform="matrix(0.02339821,0,0,0.02367576,-3.6659465,-3.7927863)">
    <stop
       offset="0"
       stop-color="#FBB040"
       id="stop49" />
    <stop
       offset="1"
       stop-color="#FB8840"
       id="stop51" />
  </linearGradient>
  <path
     id="XMLID_6_"
     class="st4"
     d="M 9.1796691,8.0214175 C 6.9802378,10.152237 4.7340099,14.650631 4.406435,14.840035 4.0788603,15.029443 3.5290023,15.053118 3.2365247,14.721657 2.9253285,14.368889 2.4409857,13.798304 5.0615848,8.9210963 c 3.144719,-5.8502797 3.5565275,-6.439806 5.1944022,-6.439806 0.861054,0 1.729127,0.3930176 2.290684,1.0914525 0.03042,0.049719 0.06083,0.1018058 0.09126,0.1538925 C 11.676258,2.7251506 9.5844585,2.4931283 9.0650181,3.7219 8.5315389,4.9814504 9.9611699,6.3830554 10.585901,6.2717792 11.381441,6.1297244 10.445512,4.2830156 10.445512,4.2830156 c 1.214366,2.3178567 0.933589,1.607584 -1.2658429,3.7384019 z"
     style="fill:url(#XMLID_11_);stroke-width:0.02353656"
     inkscape:connector-curvature="0" />
  <linearGradient
     id="XMLID_16_"
     gradientUnits="userSpaceOnUse"
     x1="508.333"
     y1="295.758"
     x2="450.333"
     y2="933.758"
     gradientTransform="matrix(0.02339821,0,0,0.02367576,-3.6659465,-3.7927863)">
    <stop
       offset="0"
       stop-color="#FFF"
       id="stop55" />
    <stop
       offset="1"
       stop-color="#FFF"
       stop-opacity="0"
       id="stop57" />
  </linearGradient>
  <path
     id="XMLID_13_"
     class="st5"
     d="m 5.3189651,9.1815299 c 3.144719,-5.8502798 3.5565273,-6.4398064 5.1944019,-6.4398064 0.708965,0 1.422611,0.2675362 1.96545,0.7505218 -0.561559,-0.6487159 -1.394535,-1.010955 -2.22283,-1.010955 -1.6378747,0 -2.0496832,0.5895263 -5.1944022,6.439806 -2.6205991,4.8772077 -2.1362563,5.4477927 -1.8250601,5.8005607 0.044457,0.04973 0.095933,0.09233 0.1497486,0.127851 C 3.112514,14.447019 2.9908435,13.511827 5.3189651,9.1815299 Z"
     style="opacity:0.3;fill:url(#XMLID_16_);stroke-width:0.02353656"
     inkscape:connector-curvature="0" />
</svg>

<svg xmlns="http://www.w3.org/2000/svg" width="16" height="16" viewBox="0 0 16 16"><g transform="matrix(.0234 0 0 .02368 -3.666 -3.793)"><linearGradient id="a" gradientUnits="userSpaceOnUse" x1="444.469" y1="526.051" x2="598.469" y2="562.051"><stop offset="0" stop-color="#FF6533"/><stop offset=".157" stop-color="#FF5633"/><stop offset=".434" stop-color="#FF4333"/><stop offset=".714" stop-color="#FF3733"/><stop offset="1" stop-color="#F33"/></linearGradient><path d="M721 410c0-33.6-8.8-65.1-24.3-92.4-41.1-42.3-130.5-52.1-152.7-.2-22.8 53.2 38.3 112.4 65 107.7 34-6-6-84-6-84 52 98 40 68-54 158S359 779 345 787c-.6.4-1.2.7-1.9 1h368.7c6.5 0 10.7-6.9 7.8-12.7l-96.4-190.8c-2.1-4.1-.6-9.2 3.4-11.5C683 540.6 721 479.8 721 410z" fill="url(#a)"/></g><g transform="matrix(.0234 0 0 .02368 -3.666 -3.793)"><linearGradient id="b" gradientUnits="userSpaceOnUse" x1="420.382" y1="475.002" x2="696.383" y2="689.002"><stop offset="0" stop-color="#BF3338"/><stop offset="1" stop-color="#F33"/></linearGradient><path d="M721 410c0-33.6-8.8-65.1-24.3-92.4-41.1-42.3-130.5-52.1-152.7-.2-22.8 53.2 38.3 112.4 65 107.7 34-6-6-84-6-84 52 98 40 68-54 158S359 779 345 787c-.6.4-1.2.7-1.9 1h368.7c6.5 0 10.7-6.9 7.8-12.7l-96.4-190.8c-2.1-4.1-.6-9.2 3.4-11.5C683 540.6 721 479.8 721 410z" fill="url(#b)"/></g><linearGradient id="c" gradientUnits="userSpaceOnUse" x1="429.386" y1="517.156" x2="469.386" y2="559.156" gradientTransform="matrix(.0234 0 0 .02368 -3.666 -3.793)"><stop offset="0" stop-color="#FF6533"/><stop offset=".157" stop-color="#FF5633"/><stop offset=".434" stop-color="#FF4333"/><stop offset=".714" stop-color="#FF3733"/><stop offset="1" stop-color="#F33"/></linearGradient><path d="M4.406 14.84c.328-.19 2.574-4.688 4.774-6.819 2.2-2.13 2.48-1.42 1.263-3.74 0 0-4.656 6.605-6.34 9.872" fill="url(#c)" stroke-width=".024"/><g transform="matrix(.0234 0 0 .02368 -3.666 -3.793)"><linearGradient id="d" gradientUnits="userSpaceOnUse" x1="502.111" y1="589.457" x2="490.111" y2="417.457"><stop offset="0" stop-color="#FF6533"/><stop offset=".157" stop-color="#FF5633"/><stop offset=".434" stop-color="#FF4333"/><stop offset=".714" stop-color="#FF3733"/><stop offset="1" stop-color="#F33"/></linearGradient><path d="M373 537c134.4-247.1 152-272 222-272 36.8 0 73.9 16.6 97.9 46.1-32.7-52.7-90.6-88-156.9-89H307.7c-4.8 0-8.7 3.9-8.7 8.7V691c13.6-35.1 36.7-85.3 74-154z" fill="url(#d)"/></g><linearGradient id="e" gradientUnits="userSpaceOnUse" x1="450.125" y1="514.209" x2="506.943" y2="552.846" gradientTransform="matrix(.0234 0 0 .02368 -3.666 -3.793)"><stop offset="0" stop-color="#FBB040"/><stop offset="1" stop-color="#FB8840"/></linearGradient><path d="M9.18 8.021c-2.2 2.131-4.446 6.63-4.774 6.819-.327.19-.877.213-1.17-.118-.31-.353-.795-.924 1.826-5.8 3.144-5.851 3.556-6.44 5.194-6.44.861 0 1.73.392 2.29 1.09.031.05.062.103.092.155-.962-1.002-3.054-1.234-3.573-.005-.533 1.26.896 2.661 1.52 2.55.796-.142-.14-1.989-.14-1.989 1.215 2.318.934 1.608-1.265 3.738z" fill="url(#e)" stroke-width=".024"/><linearGradient id="f" gradientUnits="userSpaceOnUse" x1="508.333" y1="295.758" x2="450.333" y2="933.758" gradientTransform="matrix(.0234 0 0 .02368 -3.666 -3.793)"><stop offset="0" stop-color="#FFF"/><stop offset="1" stop-color="#FFF" stop-opacity="0"/></linearGradient><path d="M5.319 9.182c3.145-5.85 3.556-6.44 5.194-6.44.71 0 1.423.267 1.966.75a2.967 2.967 0 00-2.223-1.01c-1.638 0-2.05.589-5.194 6.44-2.621 4.876-2.137 5.447-1.825 5.8.044.05.095.092.15.128-.274-.403-.396-1.338 1.932-5.668z" opacity=".3" fill="url(#f)" stroke-width=".024"/></svg>
